X:1
T:Title
%%score { ( 1 5 ) | ( 2 3 4 ) }
L:1/8
M:4/4
K:F
V:1 treble nm="Grand Piano"
V:5 treble 
V:2 bass 
V:3 bass 
V:4 bass 
V:1
 z4 z2[Q:1/4=92] CC | FEFG AGAB |[M:3/4] cd cA c2 |[M:1/4] cc |[M:4/4] ddcc BBAA | %5
[M:7/8] [EG][DF][CE] [DF] [EG]3 |[M:1/4] CC |[M:4/4] FEFG AGAB |[M:3/4] cd cA c2 |[M:1/4] cc | %10
[M:4/4] ddcc BBAA |[M:3/4] [Fc][EB] [B,EG][CEA] [A,CF]2 |[M:1/4] [Ac]c |[M:4/4] A6 z2 | %14
 z2 [G_B]4 z2 | [EG]6 z2 | z2 [FA]4 z2 | FEFG AGAB | cdcA c2 cc | d2 cc B2 AA | %20
[M:7/8] [Fc][EB][B,EG] [CEA] [A,CF]3 |] %21
V:2
 z4 z2 [F,A,][F,A,] | [F,A,C][F,G,C][F,A,C][F,B,C] [F,CF][F,CE][K:treble][F,CF][F,G,F] | %2
[M:3/4] [F,A,F][F,B,F] [F,A,F][F,CF] [F,A,F]2 |[M:1/4] [F,A,F][F,A,F] | %4
[M:4/4] [B,F][B,F][A,CF][A,CF][K:bass] [G,CE][G,CE][F,CF][F,CF] | %5
[M:7/8] [C,C][C,C][C,G,] [C,G,] [C,C]3 |[M:1/4] [F,A,][F,A,] | %7
[M:4/4] [F,A,C][F,G,C][F,A,C][F,B,C] [F,CF][F,CE][K:treble][F,CF][F,G,F] | %8
[M:3/4] [F,A,F][F,B,F] [F,A,F][F,CF] [F,A,F]2 |[M:1/4] [F,A,F][F,A,F] | %10
[M:4/4] [B,F][B,F][A,CF][A,CF][K:bass] [G,CE][G,CE][F,CF][F,CF] |[M:3/4] [C,A,][C,G,] C,C, F,2 | %12
[M:1/4] z2 |[M:4/4] F6 z2 | [C,C][C,C] [C,C]2 C,2 z G | C,2 C,C, C,2 C,>C, | %16
 F,F, F,2 F,2 [F,A,][F,A,] | .A,2 z2 z2 [F,F]2 | [F,F]2[K:treble] z2 z4 | %19
 [B,F]2 [A,CF][A,CF][K:bass] [G,CE]2 [F,CF][F,CF] |[M:7/8] A, z z z z z2 |] %21
V:3
 x8 | x6[K:treble] x2 |[M:3/4] x6 |[M:1/4] x2 |[M:4/4] x4[K:bass] x4 |[M:7/8] x7 |[M:1/4] x2 | %7
[M:4/4] x6[K:treble] x2 |[M:3/4] x6 |[M:1/4] x2 |[M:4/4] x4[K:bass] x4 |[M:3/4] x6 |[M:1/4] z A | %13
[M:4/4] z2 F,F, F,2 F,>[F,C] | z4 z2 C,2 | x8 | x8 | %17
 [F,C]-[F,G,C][F,A,C][F,B,C] [F,CF][F,CE] z G, | %18
 A,B,[K:treble][F,A,F][F,CF] [F,A,F]2 [F,A,F][F,A,F] | x4[K:bass] x4 |[M:7/8] C,-[C,G,]C, C, F,3 |] %21
V:4
 x8 | x6[K:treble] x2 |[M:3/4] x6 |[M:1/4] x2 |[M:4/4] x4[K:bass] x4 |[M:7/8] x7 |[M:1/4] x2 | %7
[M:4/4] x6[K:treble] x2 |[M:3/4] x6 |[M:1/4] x2 |[M:4/4] x4[K:bass] x4 |[M:3/4] x6 |[M:1/4] F,2- | %13
[M:4/4] F,2 z2 z4 | x8 | x8 | x8 | x8 | x2[K:treble] x6 | x4[K:bass] x4 |[M:7/8] x7 |] %21
V:5
 x8 | x8 |[M:3/4] x6 |[M:1/4] x2 |[M:4/4] x8 |[M:7/8] x7 |[M:1/4] x2 |[M:4/4] x8 |[M:3/4] x6 | %9
[M:1/4] x2 |[M:4/4] x8 |[M:3/4] x6 |[M:1/4] x2 |[M:4/4] z2 CC C2 [CAc]>[Bd] | %14
 [Ac][G=B] z2 C2 [G_B]B | z2 CC C2 [CGB]>[CAc] | [CGB][CFA] C2 C2 CC | x8 | x8 | x8 |[M:7/8] x7 |] %21

